smart-lab/build/images/icons/footer/youtube.svg

<svg width="16" height="16" viewBox="0 0 16 16" fill="none" xmlns="http://www.w3.org/2000/svg">
<g clip-path="url(#clip0)">
<path d="M15.646 12.0473L15.666 11.9167C15.4726 12.6027 14.9506 13.132 14.2873 13.3247L14.2733 13.328C13.026 13.6667 8.00662 13.6667 8.00662 13.6667C8.00662 13.6667 2.99995 13.6733 1.73995 13.328C1.06395 13.132 0.541285 12.6027 0.351285 11.9307L0.347952 11.9167C-0.118048 9.48266 -0.121381 6.55799 0.368619 3.95199L0.347952 4.08399C0.541285 3.39799 1.06329 2.86866 1.72662 2.67599L1.74062 2.67266C2.98662 2.33333 8.00729 2.33333 8.00729 2.33333C8.00729 2.33333 13.0133 2.33333 14.274 2.67266C14.9506 2.86866 15.4733 3.39799 15.6633 4.06999L15.6666 4.08399C15.8786 5.21599 16 6.51866 16 7.84933C16 7.898 16 7.94733 15.9993 7.99666C16 8.042 16 8.096 16 8.15C16 9.48133 15.8786 10.784 15.646 12.0473ZM6.40529 5.566V10.428L10.5826 7.99333L6.40529 5.566Z" fill="white"/>
</g>
<defs>
<clipPath id="clip0">
<rect width="16" height="16" fill="white" transform="matrix(1 0 0 -1 0 16)"/>
</clipPath>
</defs>
</svg>

<svg width="16" height="16" fill="none" xmlns="http://www.w3.org/2000/svg"><g clip-path="url(#clip0)"><path d="M15.646 12.047l.02-.13a2.029 2.029 0 01-1.379 1.408l-.014.003c-1.247.339-6.266.339-6.266.339S3 13.673 1.74 13.328a2.03 2.03 0 01-1.389-1.397l-.003-.014c-.466-2.434-.47-5.359.02-7.965l-.02.132a2.028 2.028 0 011.379-1.408l.014-.003c1.246-.34 6.266-.34 6.266-.34s5.006 0 6.267.34c.677.196 1.2.725 1.39 1.397l.003.014c.212 1.132.333 2.435.333 3.765v.301a21.51 21.51 0 01-.354 3.897zm-9.24-6.481v4.862l4.177-2.435-4.178-2.427z" fill="#fff"/></g><defs><clipPath id="clip0"><path fill="#fff" transform="matrix(1 0 0 -1 0 16)" d="M0 0h16v16H0z"/></clipPath></defs></svg>
